!!!SOCIAL_FUNCTION:	songs of games played in a ceremonial manner
!!!PDT:	1932
!!!OTL: No_11_Song_in_Honor_of_the_Drum.krn
!!!REG: Wisconsin
!!!LANG: Non-Tone
!!!LING_GROUP: Algonquin
**kern
*staff1
=1-
*clefF4
*k[f#c#g#d#a#]
*M2/4
8c#\L
8c#\J
8c#\L
8c#\J
=2||
*M3/4
4c#\
8c#\L
8c#\J
8c#\L
8B\J
=3
4B\
8B\L
8B\J
8G#\L
8F#\J
=4
4F#\
8F#\L
8F#\J
8F#\
8r
=5||
*M2/4
8c#\L
8c#\J
8c#\L
8B\J
=6||
*M3/4
4B\
8B\L
8B\J
8B\L
8G#\J
=7
4G#\
8G#\L
8G#\J
8G#\L
8F#\J
=8
4F#\
8F#\L
8F#\J
8F#\L
8D#\J
=9
8F#\L
8F#\J
8F#\
8r
8B\L
8G#\J
=10
4F#\
8F#\L
8F#\J
8F#\L
8D#\J
=11
4C#/
8C#/L
16C#/Jk
16r
8C#/L
8C#/J
=12
4BB/
8BB/L
8BB/J
8GG#/L
8FF#/J
=13||
*M2/4
4FF#/
4r
=14
8C#/L
8C#/J
8C#/L
8C#/J
=15||
*M3/4
2BB/
8GG#/L
8FF#/J
=16
2FF#/
4r
==
*-
